packages/match-logos/mono/svg/redfin.svg

<svg fill="none" height="30" viewBox="0 0 114 30" width="114" xmlns="http://www.w3.org/2000/svg" xmlns:xlink="http://www.w3.org/1999/xlink"><clipPath id="a"><path d="m0 0h113.143v30h-113.143z"/></clipPath><g clip-path="url(#a)"><path d="m58.4144 5.9249c-2.6661-1.40731-5.6704-2.04764-8.6787-1.8498h-7.1071v23.5466h7.4409c2.2816.0985 4.56-.2561 6.7038-1.0431 1.8295-.6891 3.3633-1.9917 4.3393-3.6857 1.1172-2.0998 1.6277-4.4692 1.4743-6.8428.0765-2.1019-.2347-4.2-.9179-6.18918-.7281-1.57023-1.8491-2.92597-3.2546-3.93602zm-1.9749 13.9082c-.2067 1.0653-.8204 2.0082-1.7107 2.6287-1.2513.7676-2.7066 1.1363-4.1725 1.057h-2.6426v-15.75802h2.1558c1.6673-.18936 3.3468.23052 4.7288 1.1822.7792.67068 1.369 1.53382 1.7107 2.50352.3258 1.3344.4984 2.7016.5146 4.0751.039 1.4684-.1583 2.9335-.5841 4.3393zm9.3463 7.6356h5.2573v-9.9722h6.3143v-3.9499h-6.3143v-5.78582h9.6245v-3.81085h-14.8818zm18.4145 0h5.2573v-23.51877h-5.2573zm28.9427-23.51877h-5.396v13.54657l-10.0002-13.54657h-4.3393v23.54657h5.3407v-13.9082l9.8608 13.9082h4.479zm-90.7786 24.46457c-.3895-.2643-.918-.5285-2.1002-2.6287l-2.5034-3.9499-2.8929-4.7288-.2643-.4173c.1391 0 .2643-.1251.4033-.1251 3.2824-1.1822 5.2573-4.0751 5.2573-8.4284.0269-1.05573-.1842-2.10396-.6175-3.06701-.4334-.96305-1.078-1.81622-1.8859-2.49627-.2643-.26426-.5286-.38943-.6537-.65369-2.2392-1.390818-5.2573-1.91933-9.20726-1.91933h-7.496523c-.40333752 0-.528511.264256-.264255.528512.264255.264256.389429.528508.389429 1.307368v23.64392c-.044464.4834-.176419.9547-.389429 1.3909-.264256.2642-.13908252.5285.389429.5285h5.396389v-9.9027h2.50347l1.71075 3.032 2.1001 3.6718 1.057 1.8498c1.1822 2.1001 2.3644 3.4214 4.3394 3.6856.2642 0 1.1822.2643 1.7107.2643h.3894c.7373-.0011 1.463-.1826 2.1141-.5285.0651-.0735.1535-.1226.2503-.1391.7928-.3894.5285-.7789.2643-.9179zm-12.89293-14.8679h-3.54659v-9.59667h3.54659c.70403-.07768 1.41643-.01305 2.09503.19004.6785.20308 1.3093.54048 1.8549.99216.407.27686.6911.70052.7928 1.1822.2798.7124.4123 1.47416.3894 2.23922.1391 1.18219 0 4.99305-5.13213 4.99305zm19.87483 3.9499h6.3143v-3.9499h-6.3143v-5.78582h9.5967v-3.81085h-14.9931v23.54657h14.8679v-3.9499h-9.6106v-6.0501z" fill="#1f304c"/></g></svg>

<svg width="114" height="30" viewBox="0 0 114 30" fill="none" xmlns="http://www.w3.org/2000/svg">
<g clip-path="url(#clip0)">
<path d="M58.4144 5.9249C55.7483 4.51759 52.744 3.87726 49.7357 4.0751H42.6286V27.6217H50.0695C52.3511 27.7202 54.6295 27.3656 56.7733 26.5786C58.6028 25.8895 60.1366 24.5869 61.1126 22.8929C62.2298 20.7931 62.7403 18.4237 62.5869 16.0501C62.6634 13.9482 62.3522 11.8501 61.669 9.86092C60.9409 8.29069 59.8199 6.93495 58.4144 5.9249ZM56.4395 19.8331C56.2328 20.8984 55.6191 21.8413 54.7288 22.4618C53.4775 23.2294 52.0222 23.5981 50.5563 23.5188H47.9137V7.76078H50.0695C51.7368 7.57142 53.4163 7.9913 54.7983 8.94298C55.5775 9.61366 56.1673 10.4768 56.509 11.4465C56.8348 12.7809 57.0074 14.1481 57.0236 15.5216C57.0626 16.99 56.8653 18.4551 56.4395 19.8609V19.8331ZM65.7858 27.4687H71.0431V17.4965H77.3574V13.5466H71.0431V7.76078H80.6676V3.94993H65.7858V27.4687ZM84.2003 27.4687H89.4576V3.94993H84.2003V27.4687ZM113.143 3.94993H107.747V17.4965L97.7468 3.94993H93.4075V27.4965H98.7482V13.5883L108.609 27.4965H113.088L113.143 3.94993ZM22.3644 28.4145C21.9749 28.1502 21.4464 27.886 20.2642 25.7858L17.7608 21.8359L14.8679 17.1071L14.6036 16.6898C14.7427 16.6898 14.8679 16.5647 15.0069 16.5647C18.2893 15.3825 20.2642 12.4896 20.2642 8.1363C20.2911 7.08057 20.08 6.03234 19.6467 5.06929C19.2133 4.10624 18.5687 3.25307 17.7608 2.57302C17.4965 2.30876 17.2322 2.18359 17.1071 1.91933C14.8679 0.528512 11.8498 0 7.89984 0H0.403317C-2.05186e-05 0 -0.125194 0.264256 0.139062 0.528512C0.403317 0.792768 0.528491 1.05702 0.528491 1.83588V25.4798C0.484027 25.9632 0.352072 26.4345 0.139062 26.8707C-0.125194 27.1349 -2.05186e-05 27.3992 0.528491 27.3992H5.92488V17.4965H8.42835L10.1391 20.5285L12.2392 24.2003L13.2962 26.0501C14.4784 28.1502 15.6606 29.4715 17.6356 29.7357C17.8998 29.7357 18.8178 30 19.3463 30H19.7357C20.473 29.9989 21.1987 29.8174 21.8498 29.4715C21.9149 29.398 22.0033 29.3489 22.1001 29.3324C22.8929 28.943 22.6286 28.5535 22.3644 28.4145ZM9.47147 13.5466H5.92488V3.94993H9.47147C10.1755 3.87225 10.8879 3.93688 11.5665 4.13997C12.245 4.34305 12.8758 4.68045 13.4214 5.13213C13.8284 5.40899 14.1125 5.83265 14.2142 6.31433C14.494 7.02673 14.6265 7.78849 14.6036 8.55355C14.7427 9.73574 14.6036 13.5466 9.47147 13.5466ZM29.3463 17.4965H35.6606V13.5466H29.3463V7.76078H38.943V3.94993H23.9499V27.4965H38.8178V23.5466H29.2072V17.4965H29.3463Z" fill="#1F304C"/>
</g>
<defs>
<clipPath id="clip0">
<rect width="113.143" height="30" fill="white"/>
</clipPath>
</defs>
</svg>
